svg/fluentui-system-icons/ic_fluent_closed_caption_48_filled.svg

<svg width="48" height="48" viewBox="0 0 48 48" fill="none" xmlns="http://www.w3.org/2000/svg">
<path d="M10.5 8C6.91015 8 4 10.9101 4 14.5V33.5C4 37.0898 6.91015 40 10.5 40H37.5C41.0899 40 44 37.0898 44 33.5V14.5C44 10.9101 41.0899 8 37.5 8H10.5ZM14.0235 16.9829C16.3323 15.3337 20.114 15.624 21.81 18.3375C22.1759 18.9229 21.9979 19.6941 21.4125 20.06C20.8271 20.4259 20.0559 20.2479 19.69 19.6625C18.886 18.3761 16.8188 18.0584 15.4765 19.0172C14.6383 19.6159 13.5 20.8791 13.5 24C13.5 27.1585 14.5834 28.391 15.4397 28.9576C16.0722 29.3761 16.9617 29.5783 17.8276 29.4867C18.6952 29.3949 19.3701 29.0313 19.7328 28.5235C20.1341 27.9617 20.9148 27.8316 21.4766 28.2329C22.0383 28.6341 22.1684 29.4148 21.7672 29.9766C20.8799 31.2187 19.4586 31.8281 18.0906 31.9728C16.7208 32.1177 15.2353 31.82 14.0603 31.0425C12.3834 29.9331 11 27.8415 11 24C11 20.1209 12.4893 18.0787 14.0235 16.9829ZM36.81 18.3375C37.1759 18.9229 36.9979 19.6941 36.4125 20.06C35.8271 20.4259 35.0559 20.2479 34.69 19.6625C33.886 18.3761 31.8188 18.0584 30.4765 19.0172C29.6383 19.6159 28.5 20.8791 28.5 24C28.5 27.1585 29.5834 28.391 30.4397 28.9576C31.0722 29.3761 31.9617 29.5783 32.8276 29.4867C33.6952 29.3949 34.3701 29.0313 34.7328 28.5235C35.1341 27.9617 35.9148 27.8316 36.4766 28.2329C37.0383 28.6341 37.1684 29.4148 36.7672 29.9766C35.8799 31.2187 34.4586 31.8281 33.0906 31.9728C31.7208 32.1177 30.2353 31.82 29.0603 31.0425C27.3834 29.9331 26 27.8415 26 24C26 20.1209 27.4893 18.0787 29.0235 16.9829C31.3323 15.3337 35.114 15.624 36.81 18.3375Z" fill="#212121"/>
</svg>

<svg xmlns="http://www.w3.org/2000/svg" width="48" height="48"><path d="M10.5 8A6.5 6.5 0 0 0 4 14.5v19a6.5 6.5 0 0 0 6.5 6.5h27a6.5 6.5 0 0 0 6.5-6.5v-19A6.5 6.5 0 0 0 37.5 8h-27Zm3.524 8.983c2.308-1.65 6.09-1.359 7.786 1.354a1.25 1.25 0 0 1-2.12 1.326c-.804-1.287-2.871-1.605-4.214-.646-.838.599-1.976 1.862-1.976 4.983 0 3.159 1.083 4.391 1.94 4.958.632.418 1.522.62 2.388.529.867-.092 1.542-.456 1.905-.963a1.25 1.25 0 0 1 2.034 1.453c-.887 1.242-2.308 1.851-3.676 1.996-1.37.145-2.856-.153-4.03-.93C12.382 29.933 11 27.841 11 24c0-3.88 1.49-5.921 3.024-7.017Zm22.786 1.354a1.25 1.25 0 0 1-2.12 1.326c-.804-1.287-2.871-1.605-4.213-.646-.839.599-1.977 1.862-1.977 4.983 0 3.159 1.083 4.391 1.94 4.958.632.418 1.522.62 2.388.529.867-.092 1.542-.456 1.905-.963a1.25 1.25 0 0 1 2.034 1.453c-.887 1.242-2.308 1.851-3.676 1.996-1.37.145-2.856-.153-4.03-.93C27.382 29.933 26 27.841 26 24c0-3.88 1.49-5.921 3.023-7.017 2.31-1.65 6.091-1.359 7.787 1.354Z"/></svg>
